svg_80x80/celery.svg

<svg viewBox="0 0 80 80" xmlns="http://www.w3.org/2000/svg">
<rect width="100%" height="100%" fill="white"/>
<path d="M71.5908 55.1724H17.4531C12.0431 55.1724 7.95547 52.5367 5.06085 48.0145C5.0352 47.9591 5.01955 47.8996 5.01461 47.8387H60.4378C61.4327 49.4858 62.7136 50.942 64.2202 52.1391C65.6735 53.283 67.3349 54.1342 69.1124 54.6453C69.9262 54.8395 70.7678 54.9874 71.5908 55.1724V55.1724ZM3.0078 40.4404C2.91769 37.8311 3.61014 35.2545 4.99611 33.042H59.7164C59.9196 33.0638 60.1188 33.1136 60.3083 33.1899C60.2066 33.4304 60.0956 33.6708 60.0031 33.9113C59.7072 34.6419 59.402 35.3725 59.1338 36.1123C58.6768 37.4892 58.4609 38.9346 58.4957 40.3849H3.0078V40.4404Z" fill="#A8CB54"/>
<path d="M3.00809 40.4404H58.496C58.4574 43.0337 59.1188 45.5895 60.4103 47.8388H5.0149C3.64817 45.617 2.95138 43.0482 3.00809 40.4404V40.4404ZM60.3456 33.153C60.156 33.0766 59.9569 33.0268 59.7537 33.005H5.00565C6.03776 31.112 7.50937 29.4944 9.29672 28.2885C11.2559 26.872 13.5512 25.9921 15.9553 25.7361C16.5749 25.6436 17.25 25.6436 17.9251 25.6436H71.4432L70.2872 25.9118C67.744 26.4259 65.3845 27.6105 63.4529 29.3428C62.2484 30.4654 61.2029 31.7473 60.3456 33.153V33.153Z" fill="#B5DD64"/>
<path d="M60.3443 33.153C61.2016 31.7473 62.2471 30.4654 63.4516 29.3428C65.3837 27.6023 67.7468 26.4112 70.2951 25.8933L71.4419 25.6436C72.495 25.5423 73.5577 25.6173 74.5862 25.8656C75.0903 26.0588 75.5459 26.36 75.9212 26.7481C76.2965 27.1361 76.5823 27.6016 76.7586 28.1119C76.9348 28.6222 76.9973 29.1648 76.9415 29.7018C76.8857 30.2387 76.7131 30.757 76.4358 31.2201C76.0977 31.7945 75.6129 32.2686 75.0311 32.5937C74.4492 32.9187 73.7913 33.083 73.125 33.0697C71.3397 33.1173 69.6318 33.8091 68.3167 35.0174C67.0015 36.2257 66.1679 37.869 65.9695 39.6439C65.7712 41.4188 66.2216 43.2055 67.2376 44.6743C68.2536 46.1431 69.7666 47.1948 71.4973 47.6353C72.028 47.7939 72.5807 47.8657 73.1342 47.848C73.6548 47.8246 74.1745 47.9115 74.6592 48.103C75.1438 48.2944 75.5826 48.5861 75.9467 48.9589C76.3108 49.3318 76.592 49.7773 76.7719 50.2664C76.9518 50.7554 77.0263 51.277 76.9906 51.7969C76.92 52.6663 76.5443 53.4828 75.9301 54.1022C75.3158 54.7215 74.5024 55.1038 73.6336 55.1817C72.959 55.2186 72.2829 55.2186 71.6083 55.1817C70.7852 54.9967 69.9437 54.8487 69.1299 54.6083C67.3524 54.0972 65.6909 53.246 64.2377 52.1021C62.7278 50.9177 61.4408 49.4741 60.4367 47.8388C59.1452 45.5895 58.4839 43.0337 58.5224 40.4404C58.4744 38.9793 58.681 37.5211 59.1328 36.1308C59.401 35.391 59.7062 34.6604 60.0021 33.9298C60.0946 33.6339 60.2056 33.3934 60.3443 33.153V33.153Z" fill="#DCF3A3"/>
</svg>

<svg xmlns="http://www.w3.org/2000/svg" viewBox="0 0 80 80">
  <rect width="100%" height="100%" fill="#fff"/>
  <path fill="#A8CB54" d="M71.6 55.2H17.5A14.2 14.2 0 0 1 5 47.8h55.4c1 1.7 2.3 3.1 3.8 4.3 1.5 1.2 3.1 2 5 2.5l2.4.6ZM3 40.4c0-2.6.6-5.1 2-7.4h54.7l.6.2-.3.7-.9 2.2c-.4 1.4-.6 2.8-.6 4.3H3Z"/>
  <path fill="#B5DD64" d="M3 40.4h55.5c0 2.6.6 5.2 2 7.4H5c-1.4-2.2-2-4.8-2-7.4Zm57.3-7.2-.5-.2H5c1-1.9 2.5-3.5 4.3-4.7 2-1.4 4.3-2.3 6.7-2.6h55.4l-1.1.2a14.6 14.6 0 0 0-10 7.3Z"/>
  <path fill="#DCF3A3" d="M60.3 33.2a18 18 0 0 1 3.2-3.9c1.9-1.7 4.2-2.9 6.8-3.4l1.1-.3c1 0 2.2 0 3.2.3a3.7 3.7 0 0 1 1.8 5.3 3.8 3.8 0 0 1-3.3 1.9 7.4 7.4 0 0 0 0 14.7 3.7 3.7 0 0 1 3.9 4 3.7 3.7 0 0 1-3.4 3.4h-2l-2.5-.6c-1.7-.5-3.4-1.4-4.9-2.5a14.4 14.4 0 0 1-5.7-11.7c0-1.4.2-2.9.6-4.3L60 34c0-.3.2-.5.3-.7Z"/>
</svg>
